!!!!SEGMENT: pl-cz--ii-121--004_klakowski--missa-in-dis-et-incarnatus.krn
!!!cenid: 18xx:881
!!!COM: Klakowski
!!!COM-rismid: pe30098487
!!!CDT: ~1800-~1899
!!!CNT:
!!!OPR: Missa in Dis
!!!OTL: Et incarnatus
!!!OMV: 004
!!!PDT:
!!!AGN: Sacred; Mass
!!!SMS-siglum: PL-CZ
!!!SMS-shelfmark: II-121
!!!SMS-shelfwork: 001-004 M
!!!SMS-variant:
!!!SMS-altvar:
!!!NIFC-rismid: 300000590
!!!URL-scan: http://repozytorium.nifc.pl/skany/pl-cz-nut--ii-121
!!!ONB-nifc: UWAGA: części Mszy: Kyrie, Gloria, Credo, Et incarnatus, Et resurrexit, Sanctus, Benedictus, Agnus Dei, Dona nobis
!!!AIN: 1 alto 1 bass 2 clars 2 cor 1 organ 1 soprn 1 tenor 1 viola 2 violn
!!!key: B-
**kern	**fba	**dynam	**kern	**dynam	**kern	**dynam	**kern	**dynam	**kern	**text	**kern	**kern	**text	**kern	**text	**kern	**kern	**kern	**dynam	**kern	**dynam
*	*	*	*group4	*	*group4	*	*group4	*	*group3	*	*group3	*group3	*	*group3	*	*group2	*group2	*group1	*	*group1	*
*part12	*part12	*part12	*part11	*part11	*part10	*part10	*part9	*part9	*part8	*part8	*part7	*part6	*part6	*part5	*part5	*part4	*part3	*part2	*part2	*part1	*part1
*staff12	*	*	*staff11	*	*staff10	*	*staff9	*	*staff8	*staff8	*staff7	*staff6	*staff6	*staff5	*staff5	*staff4	*staff3	*staff2	*	*staff1	*
*I"Organo	*	*	*I"Alto, Viola	*	*I"Violino Secondo	*	*I"Violino Primo,	*	*I"Baſso,	*	*I"Tenore,	*I"Alto	*	*I"Canto	*	*I"Corno Secundo in Diſ.	*I"Corno Primo in D.ſ	*I"Clarinetto Secundo	*	*I"Clarinetto Primo in B,	*
*I'org	*	*	*I'a-vla	*	*I'vl 2	*	*I'vl 1	*	*I'B	*	*I'T	*I'A	*	*I'S	*	*I'cor 2 in E|b	*I'cor 1 in E|b	*I'cl 2	*	*I'cl 1 in B|b	*
*Iorgan	*	*	*Iviola	*	*Ivioln	*	*Ivioln	*	*Ibass	*	*Itenor	*Ialto	*	*Isoprn	*	*Icor	*Icor	*Iclars	*	*Iclars	*
*ICklav	*	*	*ICstr	*	*ICstr	*	*ICstr	*	*ICvox	*	*ICvox	*ICvox	*	*ICvox	*	*ICbras	*ICbras	*ICww	*	*ICww	*
*IGcont	*	*	*	*	*	*	*	*	*IGcoro	*	*IGcoro	*IGcoro	*	*IGcoro	*	*	*	*	*	*	*
*clefF4	*	*	*clefC3	*	*clefG2	*	*clefG2	*	*clefF4	*	*	*clefC3	*	*clefC1	*	*	*	*clefG2	*	*clefG2	*
*	*	*	*	*	*	*	*	*	*	*	*	*	*	*	*	*	*	*ITrd1c2	*	*ITrd1c2	*
*k[b-e-]	*	*	*k[b-e-]	*	*k[b-e-]	*	*k[b-e-]	*	*k[b-e-]	*	*	*k[b-e-]	*	*k[b-e-]	*	*	*	*k[b-e-]	*	*k[b-e-]	*
*B-:	*	*	*B-:	*	*B-:	*	*B-:	*	*B-:	*	*	*B-:	*	*B-:	*	*	*	*B-:	*	*B-:	*
*M2/2	*	*	*M2/2	*	*M2/2	*	*M2/2	*	*M2/2	*	*	*M2/2	*	*M2/2	*	*	*	*M2/2	*	*M2/2	*
*met(c|)	*	*	*met(c|)	*	*met(c|)	*	*met(c|)	*	*met(c|)	*	*	*met(c|)	*	*met(c|)	*	*	*	*met(c|)	*	*met(c|)	*
*all\right	*	*	*all\right	*	*all\right	*	*all\right	*	*all\right	*	*	*all\right	*	*all\right	*	*	*	*all\right	*	*all\right	*
=1	=1	=1	=1	=1	=1	=1	=1	=1	=1	=1	=1	=1	=1	=1	=1	=1	=1	=1	=1	=1	=1
*	*	*	*	*	*	*	*	*	*	*	*	*2\right	*	*2\right	*	*	*	*	*	*	*
!LO:TX:a:i:t=Solo	!	!	!	!	!LO:TX:t=P:problem=przy kluczu błędnie b- ee- gg-	!	!LO:TX:a:i:t=dol&colon;	!	!	!	!	!LO:TX:a:i:t=Solo	!	!LO:TX:a:i:t=Cantabile Solo	!	!	!	!LO:TX:a:t=1	!	!LO:TX:a:t=1	!
!LO:TX:a:B:t=Adagio	!	!	!LO:TX:a:B:t=adagio Canta.	!	!LO:TX:a:B:t=Adagio Canto	!LO:DY:rj	!LO:TX:a:B:t=Adagio Cantabile	!	!LO:TX:a:B:t=Adagio	!	!LO:TX:a:i:t=Et in car\nTacet	!LO:TX:a:B:t=adagio	!	!LO:TX:a:B:t=ada&colon;	!	!LO:TX:a:i:t=Et in Car. Tacet	!LO:TX:a:i:t=Et in Carnatus Tacet	!LO:TX:a:B:t=adagio Canta	!	!LO:TX:a:B:t=ada	!
4B-\	.	.	4b-\	.	(2d/	p	(2f/	.	00r	.	1ryy	2dd\	Et	2ff\	Et	1ryy	1ryy	1r	.	1r	.
4BB-/	.	.	4B-/	.	.	.	.	.	.	.	.	.	.	.	.	.	.	.	.	.	.
2r	.	.	2r	.	4B-/)	.	4d/)	.	.	.	.	4b-\	in	4dd\	in-	.	.	.	.	.	.
.	.	.	.	.	4c/|	.	4e-/	.	.	.	.	4cc\	car-	4ee-\	-car-	.	.	.	.	.	.
=2	=2	=2	=2	=2	=2	=2	=2	=2	=2	=2	=2	=2	=2	=2	=2	=2	=2	=2	=2	=2	=2
*2\right	*	*	*2\right	*	*	*	*	*	*	*	*	*	*	*	*	*	*	*	*	*	*
2B-\	5 3	.	2f\	.	(4.d/	.	4.f/	.	.	.	1ryy	4.dd\	-na-	4.ff\	-na-	1ryy	1ryy	2r	.	2r	.
.	4 2	.	.	.	8c/)	.	8e-/	.	.	.	.	8cc\	-tus	8ee-\	-tus	.	.	.	.	.	.
4B-\	3 1	.	4b-\	.	4B-/	.	4d/	.	.	.	.	4b-\	eſt	4dd\	eſt	.	.	4r	.	4r	.
4BB-/	.	.	4B-/	.	8r	.	8r	.	.	.	.	4r	.	4r	.	.	.	8r	.	8r	.
!	!	!	!	!	!	!	!	!	!	!	!	!	!	!	!	!	!	!	!	!LO:TX:t=P:problem= caudy z prawej strony	!
.	.	.	.	.	8B-/	.	8d/	.	.	.	.	.	.	.	.	.	.	8b-\	p	8dd\	.
=3	=3	=3	=3	=3	=3	=3	=3	=3	=3	=3	=3	=3	=3	=3	=3	=3	=3	=3	=3	=3	=3
!	!	!	!	!	!	!	!	!	!	!	!	!	!	!LO:TX:a:t=2	!	!	!	!LO:TX:a:i:t=dol	!	!LO:TX:a:i:t=dol	!
4F\	6 4	.	2f\	.	(8B-/L	.	(8d/L	.	.	.	1ryy	0r	.	0r	.	1ryy	1ryy	(8b-\L	.	8dd\L	.
.	5 3	.	.	.	8A/)	.	8c/)	.	.	.	.	.	.	.	.	.	.	8a\)	.	8cc\	.
4r	.	.	.	.	8A/|	.	8c/|	.	.	.	.	.	.	.	.	.	.	8a\|	.	8cc\	.
.	.	.	.	.	8A/J|	.	8c/J|	.	.	.	.	.	.	.	.	.	.	8a\J|	.	8cc\J	.
4BB-/	4 2	.	2f\	.	(8c/L	.	(8e-/L	.	.	.	.	.	.	.	.	.	.	(8cc\L	.	8ee-\L	.
.	3 1	.	.	.	8B-/)	.	8d/)	.	.	.	.	.	.	.	.	.	.	8b-\)	.	8dd\	.
4r	.	.	.	.	8B-/|	.	8d/|	.	.	.	.	.	.	.	.	.	.	8b-\|	.	8dd\	.
.	.	.	.	.	8B-/J|	.	8d/J|	.	.	.	.	.	.	.	.	.	.	8b-\J	.	8dd\J	.
!	!	!	!	!	!	!	!	!	!	!	!	!	!	!	!	!	!	!LO:LB:g=original	!	!LO:LB:g=original	!
=4	=4	=4	=4	=4	=4	=4	=4	=4	=4	=4	=4	=4	=4	=4	=4	=4	=4	=4	=4	=4	=4
4r	.	.	4r	.	8e-/L	.	(8g/L	.	.	.	1ryy	.	.	.	.	1ryy	1ryy	8ee-\L	.	8gg\L	.
.	.	.	.	.	8d/J	.	8f/J)	.	.	.	.	.	.	.	.	.	.	8dd\J	.	8ff\J	.
4BB-/	.	.	4b-\	.	4.d/	.	4.f/	.	.	.	.	.	.	.	.	.	.	4.dd\	.	4.ff\	.
4F\	.	.	4B-/	.	.	.	.	.	.	.	.	.	.	.	.	.	.	.	.	.	.
.	.	.	.	.	8A/L	.	(8c/L	.	.	.	.	.	.	.	.	.	.	(8a\L	.	8cc\L	.
4FF/	.	.	4r	.	8B-/	.	8d/	.	.	.	.	.	.	.	.	.	.	8b-\	.	8dd\	.
.	.	.	.	.	8c/J	.	8e-/J)	.	.	.	.	.	.	.	.	.	.	8cc\J)	.	8ee-\J	.
!	!	!	!LO:LB:g=original	!	!LO:LB:g=original	!	!	!	!	!	!	!	!	!	!	!	!	!	!	!	!
=5	=5	=5	=5	=5	=5	=5	=5	=5	=5	=5	=5	=5	=5	=5	=5	=5	=5	=5	=5	=5	=5
4BB-/	.	.	4b-\	.	2d/	.	(2f/	.	00r	.	1ryy	2dd\	Et	2ff\	Et	1ryy	1ryy	4dd\	.	4ff\	.
4BB-/	.	.	4B-/	.	.	.	.	.	.	.	.	.	.	.	.	.	.	4r	.	4r	.
2r	.	.	2r	.	4B-/	.	4d/)	.	.	.	.	4b-\	in-	4dd\	in-	.	.	2r	.	2r	.
.	.	.	.	.	4c/	.	4e-|/	.	.	.	.	4cc\	-car-	4ee-\	-car-	.	.	.	.	.	.
=6	=6	=6	=6	=6	=6	=6	=6	=6	=6	=6	=6	=6	=6	=6	=6	=6	=6	=6	=6	=6	=6
2B-\	5 3	.	2f\	.	4.d/	.	4.f/	.	.	.	1ryy	4.dd\	-na-	4.ff\	-na-	1ryy	1ryy	2r	.	2r	.
.	4 2	.	.	.	8c/	.	8e-/	.	.	.	.	8cc\	-t(us)	8ee-\	-t(us)	.	.	.	.	.	.
4B-\	3 1	.	4b-\	.	4B-/	.	4d/	.	.	.	.	4b-\	eſt	4dd\	eſt	.	.	4r	.	4r	.
!	!	!	!	!	!	!	!LO:LB:g=original	!	!	!	!	!	!	!	!	!	!	!	!	!	!
4BB-/	.	.	4B-/	.	8r	.	8r	.	.	.	.	8r	.	8r	.	.	.	8r	.	8r	.
.	.	.	.	.	8B-/	.	8d/	.	.	.	.	8b-\	de	8dd\	de	.	.	8b-\	.	8dd\	.
!	!	!	!	!	!	!	!	!	!	!	!	!LO:LB:g=original	!	!	!	!	!	!	!	!	!
=7	=7	=7	=7	=7	=7	=7	=7	=7	=7	=7	=7	=7	=7	=7	=7	=7	=7	=7	=7	=7	=7
4B-\	.	.	4b-\	.	(8B-/L	.	(8d/L	.	.	.	1ryy	4b-\	Spi-	8dd\L	spi-	1ryy	1ryy	4b-\	.	4dd\	.
.	.	.	.	.	8A/J)	.	8c/)	.	.	.	.	.	.	8cc\	.	.	.	.	.	.	.
4r	.	.	4r	.	(8e-/L	.	8g/|	.	.	.	.	8ee-\L	.	8gg\	.	.	.	(8ee-\L	.	8gg\L	.
.	.	.	.	.	8d/J)	.	8f/J|	.	.	.	.	8dd\J	.	8ff\J	.	.	.	8dd\J)	.	8ff\J	.
!	!	!	!	!	!	!	!	!	!	!	!	!	!	!LO:LB:g=original	!	!	!	!	!	!	!
4F\	8 6	.	4f\	.	(8d/L	.	(8f/L	.	.	.	.	8dd\L	-ri-	(8ff\L	-ri-	.	.	(8dd\L	.	8ff\L	.
.	7 5	.	.	.	8c/)	.	8e-/)	.	.	.	.	8cc\J	.	8ee-\J)	.	.	.	8cc\)	.	8ee-\	.
4FF/	6 4	.	4f\	.	(8B-/	.	8d/|	.	.	.	.	8b-\L	-tu	(8dd\L	-tu	.	.	(8b-\	.	8dd\	.
.	5 3	.	.	.	8A/J)	.	8c/J|	.	.	.	.	8a\J	.	8cc\J)	.	.	.	8a\J)	.	8cc\J	.
=8	=8	=8	=8	=8	=8	=8	=8	=8	=8	=8	=8	=8	=8	=8	=8	=8	=8	=8	=8	=8	=8
4r	.	.	4r	.	8A/L	.	(8c/L	.	.	.	1ryy	8e-\L	San-	(8cc\L	San-	1ryy	1ryy	(8a\L	.	8cc\L	.
.	.	.	.	.	8B-/J	.	8B-/J)	.	.	.	.	8d\J	.	8b-\J)	.	.	.	8b-\J)	.	8b-\J	.
4B-\	.	.	4B-/	.	4B-/	.	4B-/	.	.	.	.	4d\	-cto	4b-\	-cto	.	.	4b-\	.	4b-\	.
4BB-/	.	.	4B-/	.	4r	.	4r	.	.	.	.	4r	.	4r	.	.	.	2r	.	2r	.
4r	.	.	4r	.	8B-/L	.	(8d'/L	.	.	.	.	8b-\	ex	8dd\	ex	.	.	.	.	.	.
.	.	.	.	.	8B-/J	.	8d'/J)	.	.	.	.	8b-\	Ma-	8dd\	Ma-	.	.	.	.	.	.
=9	=9	=9	=9	=9	=9	=9	=9	=9	=9	=9	=9	=9	=9	=9	=9	=9	=9	=9	=9	=9	=9
4r	.	.	4r	.	(8B-/L	.	(8d/L	.	00r	.	1ryy	8b-\L	-ri-	(8dd\L	-ri-	1ryy	1ryy	4r	.	4r	.
.	.	.	.	.	8A/)	.	8c/)	.	.	.	.	8a\J	.	8cc\J)	.	.	.	.	.	.	.
4F\	5 3	.	4F/	.	8A/|	.	8c/|	.	.	.	.	4a\	-a	4cc\	-a	.	.	8r	.	8r	.
.	.	.	.	.	8A/J|	.	8c/J|	.	.	.	.	.	.	.	.	.	.	8a\	.	8cc\	.
!	!	!	!	!	!	!	!	!	!	!	!	!	!	!	!	!	!	!LO:LB:g=original	!	!	!
4r	.	.	4r	.	(8A/L	.	(8c/L	.	.	.	.	4r	.	4r	.	.	.	(8a\L	.	8cc\L	.
.	.	.	.	.	8B-/)	.	8d/)	.	.	.	.	.	.	.	.	.	.	8b-\	.	8dd\	.
4F\	7 5	.	4A/	.	8c/|	.	8e-/|	.	.	.	.	8cc\	ex	8ee-\	ex	.	.	8cc\J)	.	8ee-\J	.
.	.	.	.	.	8c/J|	.	8e-/J|	.	.	.	.	8cc\	Ma-	8ee-\	Ma-	.	.	8r	.	8r	.
!LO:LB:g=original	!	!	!	!	!	!	!	!	!	!	!	!	!	!	!	!	!	!	!	!	!
=10	=10	=10	=10	=10	=10	=10	=10	=10	=10	=10	=10	=10	=10	=10	=10	=10	=10	=10	=10	=10	=10
4r	.	.	4r	.	(8c/L	.	(8e-/L	.	.	.	1ryy	8cc\L	-ri-	8ee-\L	-ri-	1ryy	1ryy	4r	.	4r	.
.	.	.	.	.	8B-/)	.	8d/)	.	.	.	.	8b-\J	.	8dd\J	.	.	.	.	.	.	.
4BB-/	5 3	.	4B-/	.	8B-/|	.	8d/|	.	.	.	.	4b-\	-a	4dd\	-a	.	.	8r	.	8r	.
.	.	.	.	.	8B-/J|	.	8d/J|	.	.	.	.	.	.	.	.	.	.	8b-\	.	8dd\	.
4r	.	.	4r	.	(8B-/L	.	(8d/L	.	.	.	.	4r	.	4r	.	.	.	(8b-\L	.	8dd\L	.
.	.	.	.	.	8c/)	.	8e-/)	.	.	.	.	.	.	.	.	.	.	8cc\)	.	8ee-\	.
4BB-/	.	.	4B-/	.	8d/|	.	8f/|	.	.	.	.	8dd\	ex	8ff\	ex	.	.	8dd\|	.	8ff\	.
.	.	.	.	.	8d/J|	.	8f/J|	.	.	.	.	8dd\	Ma-	8ff\	Ma-	.	.	8dd\J|	.	8ff\J	.
!	!	!	!	!	!	!	!	!	!	!	!	!LO:LB:g=original	!	!	!	!	!	!	!	!LO:LB:g=original	!
=11	=11	=11	=11	=11	=11	=11	=11	=11	=11	=11	=11	=11	=11	=11	=11	=11	=11	=11	=11	=11	=11
2B-\	.	.	1f	.	4d/	.	4f/	.	.	.	1ryy	4dd\	-ri-	4ff\	-ri-	1ryy	1ryy	4dd\|	.	4ff\	.
.	.	.	.	.	(8c/L	.	(8e-/L	.	.	.	.	8cc\L	-a	8ee-\L	-a	.	.	(8cc\L	.	8ee-\L	.
.	.	.	.	.	8B-/J)	.	8d/J)	.	.	.	.	8b-\J	.	8dd\J	.	.	.	8b-\J)	.	8dd\J	.
*	*	*	*	*	*custos:c	*	*	*	*	*	*	*	*	*	*	*	*	*	*	*	*
!	!	!	!	!	!LO:LB:g=original	!	!	!	!	!	!	!	!	!	!	!	!	!	!	!	!
4A\	6 5	.	.	.	4c/	.	4e-/	.	.	.	.	4cc\	Vir-	4ee-\	Vir-	.	.	4cc\	.	4ee-\	.
4B-\	5 3	.	.	.	4B-/	.	4d/	.	.	.	.	4b-\	-gi-	4dd\	-gi-	.	.	4b-\	.	4dd\	.
!	!	!	!	!	!	!	!	!	!	!	!	!	!	!LO:LB:g=original	!	!	!	!	!	!	!
=12	=12	=12	=12	=12	=12	=12	=12	=12	=12	=12	=12	=12	=12	=12	=12	=12	=12	=12	=12	=12	=12
4F\	.	.	4f\	.	4A/	.	(8c/L	.	.	.	1ryy	4an\	-ne	4cc\	-ne	1ryy	1ryy	4a\	.	4cc\	.
.	.	.	.	.	.	.	8f/)	.	.	.	.	.	.	.	.	.	.	.	.	.	.
4r	.	.	4r	.	8f/L	.	8a/|	.	.	.	.	4r	.	4r	.	.	.	4r	.	4r	.
.	.	.	.	.	8f/J	.	8a/J|	.	.	.	.	.	.	.	.	.	.	.	.	.	.
!	!	!	!	!	!	!	!LO:TX:t=P:problem=mixed beam	!	!	!	!	!	!	!	!	!	!	!	!	!	!
2r	.	.	4r	.	8a/L|	.	8cc\L	.	.	.	.	4r	.	4r	.	.	.	2r	.	2r	.
.	.	.	.	.	8a/|	.	8cc\	.	.	.	.	.	.	.	.	.	.	.	.	.	.
.	.	.	4f\	.	8B-/|	.	8d/	.	.	.	.	8b-\	ex	8dd\	ex	.	.	.	.	.	.
.	.	.	.	.	8B-/J|	.	8d/J	.	.	.	.	8b-\	Ma-	8dd\	Ma-	.	.	.	.	.	.
!	!	!	!LO:LB:g=original	!	!	!	!	!	!	!	!	!	!	!	!	!	!	!	!	!	!
=13	=13	=13	=13	=13	=13	=13	=13	=13	=13	=13	=13	=13	=13	=13	=13	=13	=13	=13	=13	=13	=13
4r	.	.	4r	.	(8B-/L	.	(8d/L	.	00r	.	1ryy	8b-\L	-ri-	(8dd\L	-ri-	1ryy	1ryy	4r	.	4r	.
.	.	.	.	.	8A/)	.	8c/)	.	.	.	.	8an\J	.	8cc\J)	.	.	.	.	.	.	.
4F\	5 3	.	4F/	.	8A/|	.	8c/|	.	.	.	.	4a\	-a	4cc\	-a	.	.	8r	.	8r	.
.	.	.	.	.	8A/J|	.	8c/J|	.	.	.	.	.	.	.	.	.	.	8a\	.	8cc\	.
4r	.	.	4r	.	(8A/L	.	(8c/L	.	.	.	.	4r	.	4r	.	.	.	(8a\L	.	8cc\L	.
.	.	.	.	.	8B-/)	.	8d/)	.	.	.	.	.	.	.	.	.	.	8b-\	.	8dd\	.
4F\	7 5	.	4A/	.	8c/|	.	8e-/|	.	.	.	.	8cc\	ex	8ee-\	ex	.	.	8cc\J)	.	8ee-\J	.
.	.	.	.	.	8c/J|	.	8e-/J|	.	.	.	.	8cc\	Ma-	8ee-\	Ma-	.	.	8r	.	8r	.
!	!	!	!	!	!	!	!LO:LB:g=original	!	!	!	!	!	!	!	!	!	!	!LO:PB:g=original	!	!	!
=14	=14	=14	=14	=14	=14	=14	=14	=14	=14	=14	=14	=14	=14	=14	=14	=14	=14	=14	=14	=14	=14
4r	.	.	4r	.	(8c/L	.	(8e-/L	.	.	.	1ryy	8cc\L	-ri-	8ee-\L	-ri-	1ryy	1ryy	4r	.	4r	.
.	.	.	.	.	8B-/)	.	8d/)	.	.	.	.	8b-\J	.	8dd\J	.	.	.	.	.	.	.
4B-\	3	.	4B-/	.	8B-/|	.	8d/|	.	.	.	.	4b-\	-a	4dd\	-a	.	.	8r	.	8r	.
.	.	.	.	.	8B-/J|	.	8d/J|	.	.	.	.	.	.	.	.	.	.	8b-\	.	8dd\	.
4r	.	.	4r	.	(8B-/L	.	(8d/L	.	.	.	.	4r	.	4r	.	.	.	(8b-\L	.	(8dd\L	.
.	.	.	.	.	8c/)	.	8e-/)	.	.	.	.	.	.	.	.	.	.	8cc\)	.	8ee-\	.
4B-\	.	.	4B-/	.	8d/|	.	8f/|	.	.	.	.	8dd\	ex	8ff\	ex	.	.	8dd\|	.	8ff\	.
.	.	.	.	.	8d/J|	.	8f/J|	.	.	.	.	8dd\	Ma-	8ff\	Ma-	.	.	8dd\J|	.	8bb-\J)	.
=15	=15	=15	=15	=15	=15	=15	=15	=15	=15	=15	=15	=15	=15	=15	=15	=15	=15	=15	=15	=15	=15
4B-\	.	.	4B-/	.	8d/L	.	4f/	.	.	.	1ryy	4dd\	-ri-	4ff\	-ri-	1ryy	1ryy	4dd\|	.	4ff\	.
.	.	.	.	.	8B-/	.	.	.	.	.	.	.	.	.	.	.	.	.	.	.	.
4E-\	6	.	4e-\	.	8e-/	.	(8g/L	.	.	.	.	8ee-\L	-a	8gg\L	-a	.	.	(8ee-\L	.	(8gg\L	.
.	.	.	.	.	8c/J	.	8e-/J)	.	.	.	.	8cc\J	.	8ee-\J	.	.	.	8cc\J)	.	8ee-\J)	.
!	!	!	!	!	!	!	!	!	!	!	!	!LO:LB:g=original	!	!	!	!	!	!	!	!	!
4F\	6 4	.	4f\	.	4B-/	.	4d/	.	.	.	.	4b-\	Vir-	4dd\	Vir-	.	.	4b-\	.	4dd\	.
4FF/	5 n	.	4F/	.	4A/	.	4c/	.	.	.	.	4a\	-gi-	4cc\	-gi-	.	.	4a\	.	4cc\	.
=16	=16	=16	=16	=16	=16	=16	=16	=16	=16	=16	=16	=16	=16	=16	=16	=16	=16	=16	=16	=16	=16
4BB-/	.	.	4F/	.	8B-/L	.	(8d/L	.	.	.	1ryy	4f\	-ne,	4b-\	-ne	1ryy	1ryy	(8b-\L	.	(8dd\L	.
.	.	.	.	.	8d/	.	8f/)	.	.	.	.	.	.	.	.	.	.	8dd\	.	8ff\)	.
4BB-/	.	.	4F/	.	8B-/	.	(8d/	.	.	.	.	4r	.	4r	.	.	.	8b-\	.	8dd\	.
.	.	.	.	.	8d/J	.	8f/J)	.	.	.	.	.	.	.	.	.	.	8dd\J)	.	8ff\J	.
!	!	!	!	!	!	!	!	!	!	!	!	!	!	!LO:LB:g=original	!	!	!	!	!	!	!
4BB-/	.	.	4F/	.	4B-/	.	4d/	.	.	.	.	2r	.	4r	.	.	.	4b-\	.	4dd\	.
4r	.	.	4r	.	4r	.	4r	.	.	.	.	.	.	8r	.	.	.	4r	.	4r	.
.	.	.	.	.	.	.	.	.	.	.	.	.	.	8ff\	et	.	.	.	.	.	.
=17	=17	=17	=17	=17	=17	=17	=17	=17	=17	=17	=17	=17	=17	=17	=17	=17	=17	=17	=17	=17	=17
!	!	!	!	!	!	!	!	!	!	!	!	!LO:TX:a:t=6	!	!	!	!	!	!LO:TX:a:t=3	!	!LO:TX:a:t=3	!
1r	.	.	1r	.	4r	.	4r	.	00r	.	1ryy	00r	.	8ff\L	ho-	1ryy	1ryy	0r	.	0r	.
.	.	.	.	.	.	.	.	.	.	.	.	.	.	8een\J	.	.	.	.	.	.	.
.	.	.	.	.	4g/	p	4b-\	.	.	.	.	.	.	4ee\	-mo	.	.	.	.	.	.
.	.	.	.	.	4g/	.	4b-\	.	.	.	.	.	.	16ee\LL	Fa-	.	.	.	.	.	.
.	.	.	.	.	.	.	.	.	.	.	.	.	.	16ff\	.	.	.	.	.	.	.
.	.	.	.	.	.	.	.	.	.	.	.	.	.	16gg\	.	.	.	.	.	.	.
.	.	.	.	.	.	.	.	.	.	.	.	.	.	16aa\JJ	.	.	.	.	.	.	.
.	.	.	.	.	4r	.	4r	.	.	.	.	.	.	8bb-\L	.	.	.	.	.	.	.
.	.	.	.	.	.	.	.	.	.	.	.	.	.	8een\J	.	.	.	.	.	.	.
!	!	!	!	!	!LO:LB:g=original	!	!	!	!	!	!	!	!	!	!	!	!	!	!	!	!
=18	=18	=18	=18	=18	=18	=18	=18	=18	=18	=18	=18	=18	=18	=18	=18	=18	=18	=18	=18	=18	=18
4r	.	.	4r	.	4r	.	4r	.	.	.	1ryy	.	.	8gg\	.	1ryy	1ryy	.	.	.	.
.	.	.	.	.	.	.	.	.	.	.	.	.	.	8ff\	-ctus	.	.	.	.	.	.
4F\	.	.	4f\	.	(8f/L	.	(8a\L	.	.	.	.	.	.	4ff\	eſt.	.	.	.	.	.	.
.	.	.	.	.	8a/J)	.	8cc\J)	.	.	.	.	.	.	.	.	.	.	.	.	.	.
4F\	.	.	4F/	.	(8f/L	.	(8a\L	.	.	.	.	.	.	2r	.	.	.	.	.	.	.
.	.	.	.	.	8a/J)	.	8cc\)	.	.	.	.	.	.	.	.	.	.	.	.	.	.
4r	.	.	4r	.	4f/	.	(8ee-\	.	.	.	.	.	.	.	.	.	.	.	.	.	.
.	.	.	.	.	.	.	8cc\J)	.	.	.	.	.	.	.	.	.	.	.	.	.	.
=19	=19	=19	=19	=19	=19	=19	=19	=19	=19	=19	=19	=19	=19	=19	=19	=19	=19	=19	=19	=19	=19
4B-\	.	.	4B-/	.	(8f/L	.	(8dd\L	.	.	.	1ryy	.	.	00r	.	1ryy	1ryy	1r	.	1r	.
.	.	.	.	.	8d/	.	8b-\)	.	.	.	.	.	.	.	.	.	.	.	.	.	.
4E-\	6	.	4e-\	.	8g/	.	(8ee-\	.	.	.	.	.	.	.	.	.	.	.	.	.	.
.	.	.	.	.	8e-/J)	.	8cc\J)	.	.	.	.	.	.	.	.	.	.	.	.	.	.
4F\	6 4	.	4f\	.	2r	.	(8cc\L	.	.	.	.	.	.	.	.	.	.	.	.	.	.
.	.	.	.	.	.	.	8b-\)	.	.	.	.	.	.	.	.	.	.	.	.	.	.
4FF/	5 n	.	4F/	.	.	.	(8b-\	.	.	.	.	.	.	.	.	.	.	.	.	.	.
.	.	.	.	.	.	.	8a\J)	.	.	.	.	.	.	.	.	.	.	.	.	.	.
!	!	!	!LO:LB:g=original	!	!	!	!	!	!	!	!	!	!	!	!	!	!	!	!	!LO:LB:g=original	!
=20	=20	=20	=20	=20	=20	=20	=20	=20	=20	=20	=20	=20	=20	=20	=20	=20	=20	=20	=20	=20	=20
4r	.	.	4r	.	8e-/L	.	(8cc\L	.	.	.	1ryy	.	.	.	.	1ryy	1ryy	2r	.	2r	.
.	.	.	.	.	8d/J	.	8b-\J)	.	.	.	.	.	.	.	.	.	.	.	.	.	.
4B-\	.	.	4B-/	.	4d/	.	4b-\|	.	.	.	.	.	.	.	.	.	.	.	.	.	.
!LO:LB:g=original	!	!	!	!	!	!	!	!	!	!	!	!	!	!	!	!	!	!	!	!	!
4BB-/	.	.	4B-/	.	2r	.	2r	.	.	.	.	.	.	.	.	.	.	4r	.	4r	.
4r	.	.	4r	.	.	.	.	.	.	.	.	.	.	.	.	.	.	4f/	.	4dd\	.
=21	=21	=21	=21	=21	=21	=21	=21	=21	=21	=21	=21	=21	=21	=21	=21	=21	=21	=21	=21	=21	=21
!LO:TX:b:i:t=pedale	!	!	!	!	!	!	!	!	!	!	!	!	!	!	!	!	!	!	!	!	!
4BB-/	.	.	4F/	.	4d/	p	4b-\	.	0r	.	1ryy	0r	.	.	.	1ryy	1ryy	4d/	.	4b-\	.
4r	.	.	4r	.	4r	.	4r	.	.	.	.	.	.	.	.	.	.	4r	.	4r	.
4BB-/	.	.	4F/	.	4f/	.	4dd\	.	.	.	.	.	.	.	.	.	.	4f/	.	4dd\	.
4r	.	.	4r	.	4r	.	4r	.	.	.	.	.	.	.	.	.	.	4r	.	4r	.
!	!	!	!	!	!	!	!	!	!	!	!	!	!	!	!	!	!	!LO:LB:g=original	!	!	!
=22	=22	=22	=22	=22	=22	=22	=22	=22	=22	=22	=22	=22	=22	=22	=22	=22	=22	=22	=22	=22	=22
*	*	*	*	*	*	*	*2\right	*	*	*	*	*	*	*	*	*	*	*	*	*2\right	*
2.BB-/	.	.	2.F/	.	2.d/	.	2.b-\	.	.	.	1ryy	.	.	.	.	1ryy	1ryy	2.d/	.	2.b-\	.
4r	.	.	4r	.	4r	.	4r	.	.	.	.	.	.	.	.	.	.	4r	.	4r	.
!	!	!	!	!	!	!	!LO:LB:g=original	!	!	!	!	!	!	!	!	!	!	!	!	!	!
=23	=23	=23	=23	=23	=23	=23	=23	=23	=23	=23	=23	=23	=23	=23	=23	=23	=23	=23	=23	=23	=23
!LO:TX:a:i:t=Tut.	!	!LO:DY:t=f.	!	!	!	!	!	!LO:DY:t=f.	!	!	!	!	!	!	!	!	!	!LO:TX:a:i:t=Tutti	!	!LO:TX:a:i:t=Tutti	!
4G\	5_ 3_	f	8d\	.	8g/L	.	(8ggL 8b-\	f	4.G\	Cru-	1ryy	4.d\	Cru-	4.gg\	Cru-	1ryy	1ryy	[1dd	.	1gg	f
.	.	.	4d\	.	8b-/	f	8dd\)	.	.	.	.	.	.	.	.	.	.	.	.	.	.
4G\	.	.	.	.	8g/	.	8dd\|	.	.	.	.	.	.	.	.	.	.	.	.	.	.
.	.	.	4d\	f	8b-/J	.	8dd\J|	.	8G\	-ci-	.	8d\	-ci-	8gg\	-ci-	.	.	.	.	.	.
!	!	!	!	!	!LO:TX:t=P:problem=mixed beam	!	!	!	!	!	!	!	!	!	!	!	!	!	!	!	!
4G\	.	.	.	.	(>8d/L	.	8gg\L	.	4G\	-fix-	.	4d\	-fi-	4gg\	-fi-	.	.	.	.	.	.
.	.	.	4d\	.	8dd\)	.	8bb-\	.	.	.	.	.	.	.	.	.	.	.	.	.	.
4G\	.	.	.	.	(8cc\	.	8aa\	.	4G\	-us	.	4d\	-xus	4gg\	-xus	.	.	.	.	.	.
.	.	.	8d\	.	8b-\J)	.	8gg\J	.	.	.	.	.	.	.	.	.	.	.	.	.	.
=24	=24	=24	=24	=24	=24	=24	=24	=24	=24	=24	=24	=24	=24	=24	=24	=24	=24	=24	=24	=24	=24
4D\	5 #	.	8d\	.	8d/L	.	(8ff#XL 8a 8d/	.	8D\	e-	1ryy	8an\	e-	8ff#X\	e-	1ryy	1ryy	1dd_	.	1ff#X	.
.	.	.	4d\	.	8a/	.	8dd/)	.	8D\	-ti-	.	8a\	-ti-	8ff#\	-ti-	.	.	.	.	.	.
4D\	.	.	.	.	8f#X/	.	8dd/|	.	8D\	-am	.	8a\	-am	8ff#\	-am	.	.	.	.	.	.
.	.	.	4d\	.	8a/J	.	8dd/J|	.	8D\	pro	.	8a\	pro	8ff#\	pro	.	.	.	.	.	.
!	!	!	!	!	!	!	!	!	!	!	!	!	!	!LO:LB:g=original	!	!	!	!	!	!	!
4D\	.	.	.	.	8aL 8d/	.	8ff#\L	.	4D\	no-	.	4a\	no-	4ff#\	no-	.	.	.	.	.	.
.	.	.	4d\	.	8cc/	.	8aa\	.	.	.	.	.	.	.	.	.	.	.	.	.	.
4D\	.	.	.	.	8b-/	.	8gg\	.	8D\	-biſ	.	8a\	-biſ	8ff#\	-bis	.	.	.	.	.	.
.	.	.	8d\	.	8a/J	.	8ff#\J	.	8D\	sub	.	8a\	sub	8ff#\	sub	.	.	.	.	.	.
!	!	!	!	!	!LO:LB:g=original	!	!	!	!	!	!	!	!	!	!	!	!	!	!	!	!
=25	=25	=25	=25	=25	=25	=25	=25	=25	=25	=25	=25	=25	=25	=25	=25	=25	=25	=25	=25	=25	=25
*	*	*	*	*	*	*	*	*	*2\right	*	*	*	*	*	*	*	*	*	*	*	*
4G\	5_ 3_	.	8d\	.	(8g/L	.	(8gg\L	.	2G\	Pon-	1ryy	2b-\	Pon-	2gg\	Pon-	1ryy	1ryy	1dd_	.	1gg	.
.	.	.	4d\	.	8b-/)	.	8dd\)	.	.	.	.	.	.	.	.	.	.	.	.	.	.
4G\	.	.	.	.	8b-/|	.	8dd\|	.	.	.	.	.	.	.	.	.	.	.	.	.	.
.	.	.	4d\	.	8b-/J|	.	8dd\J|	.	.	.	.	.	.	.	.	.	.	.	.	.	.
4G\	.	.	.	.	(8e-/L	.	(8cc\L	.	4G\	-ti-	.	4b-\	-ti-	4gg\	-ti-	.	.	.	.	.	.
.	.	.	4d\	.	8d/)	.	8b-\)	.	.	.	.	.	.	.	.	.	.	.	.	.	.
4G\	.	.	.	.	(8c/	.	(8a\	.	8G\	-o	.	8b-\	-o	8gg\	-o	.	.	.	.	.	.
!	!	!	!	!	!	!	!	!	!	!	!	!LO:SIC:v:l:t=custos "lato"	!	!	!	!	!	!	!	!	!
.	.	.	8d\	.	8B-/J)	.	8g\J)	.	8G\	Pi-	.	8b-\	Pi-	8gg\	Pi-	.	.	.	.	.	.
!	!	!	!LO:LB:g=original	!	!	!	!	!	!LO:LB:g=original	!	!	!LO:PB:g=original	!	!	!	!	!	!	!	!	!
=26	=26	=26	=26	=26	=26	=26	=26	=26	=26	=26	=26	=26	=26	=26	=26	=26	=26	=26	=26	=26	=26
*	*	*	*	*	*	*	*	*	*	*	*	*	*	*	*	*	*	*2\right	*	*	*
!	!	!	!	!	!	!	!	!	!	!	!	!	!	!	!	!	!	!	!	!LO:N:vis=2	!
4D\	#	.	4d\	.	(8d/L	.	(8f#X/L	.	4D\	-la-	1ryy	2a\	-la-	2ff#X\	-la-	1ryy	1ryy	2dd\]	.	2.ff#X\	.
.	.	.	.	.	8A/)	.	8d/)	.	.	.	.	.	.	.	.	.	.	.	.	.	.
8F#X\L	.	.	8F#X/L	.	8f#X/|	.	8a/|	.	8F#X\L	.	.	.	.	.	.	.	.	.	.	.	.
8A\J	.	.	8A/J	.	8f#/J|	.	8a/J|	.	8A\J	.	.	.	.	.	.	.	.	.	.	.	.
8d\L	.	.	8d\L	.	4f#/	.	4dd\	.	4D\	-to	.	4a\	-to	4dd\	-to	.	.	4dd\	.	.	.
8c|\	.	.	8c\	.	.	.	.	.	.	.	.	.	.	.	.	.	.	.	.	.	.
8B-|\	.	.	8B-\	.	4r	.	4r	.	4r	.	.	4r	.	4r	.	.	.	4r	.	4ff#\	.
8A|\J	.	.	8A\J	.	.	.	.	.	.	.	.	.	.	.	.	.	.	.	.	.	.
=27	=27	=27	=27	=27	=27	=27	=27	=27	=27	=27	=27	=27	=27	=27	=27	=27	=27	=27	=27	=27	=27
4G\	.	.	8d\	.	8g/L	.	(8ggL 8b- 8d\	.	2.G\	paſ-	1ryy	2.d\	paſ-	2.gg\	paſ-	1ryy	1ryy	1dd	.	1gg	.
.	.	.	4d\	.	8b-/	.	8dd\)	.	.	.	.	.	.	.	.	.	.	.	.	.	.
4G\	.	.	.	.	8g/	.	8dd\|	.	.	.	.	.	.	.	.	.	.	.	.	.	.
.	.	.	4d\	.	8b-/J	.	8dd\J|	.	.	.	.	.	.	.	.	.	.	.	.	.	.
!	!	!	!	!	!LO:TX:t=P:problem=mixed beam	!	!	!	!	!	!	!	!	!	!	!	!	!	!	!	!
4G\	.	.	.	.	8d/L	.	(8gg\L	.	.	.	.	.	.	.	.	.	.	.	.	.	.
.	.	.	4d\	.	(8dd\	.	8bb-\)	.	.	.	.	.	.	.	.	.	.	.	.	.	.
4G\	.	.	.	.	8cc\	.	(8aa\	.	4G\	-sus	.	4d\	-sus	4gg\	-sus	.	.	.	.	.	.
.	.	.	8d\	.	8b-\J)	.	8gg\J)	.	.	.	.	.	.	.	.	.	.	.	.	.	.
=28	=28	=28	=28	=28	=28	=28	=28	=28	=28	=28	=28	=28	=28	=28	=28	=28	=28	=28	=28	=28	=28
*	*	*	*	*	*	*	*	*	*	*ij	*	*	*ij	*	*ij	*	*	*	*	*	*
4D\	.	.	8d\	.	8d/L	.	(8ff#XL 8a 8d/	.	2.D\	paſ-	1ryy	2.a\	paſ-	2.ff#X\	paſ-	1ryy	1ryy	1dd	.	1gg#X	.
.	.	.	4d\	.	8a/	.	8dd/)	.	.	.	.	.	.	.	.	.	.	.	.	.	.
4D\	.	.	.	.	8f#X/	.	8dd/|	.	.	.	.	.	.	.	.	.	.	.	.	.	.
.	.	.	4d\	.	8a/J	.	8dd/J|	.	.	.	.	.	.	.	.	.	.	.	.	.	.
4D\	.	.	.	.	(8aL 8d/	.	(8ff#\L	.	.	.	.	.	.	.	.	.	.	.	.	.	.
.	.	.	4d\	.	8cc/)	.	8aa\)	.	.	.	.	.	.	.	.	.	.	.	.	.	.
4D\	.	.	.	.	(8b-/	.	(8gg\	.	4D\	-sus	.	4a\	-sus	4ff#\	-sus	.	.	.	.	.	.
*	*	*	*	*	*	*	*	*	*	*Xij	*	*	*Xij	*	*Xij	*	*	*	*	*	*
.	.	.	8d\	.	8a/J)	.	8ff#\J)	.	.	.	.	.	.	.	.	.	.	.	.	.	.
=29	=29	=29	=29	=29	=29	=29	=29	=29	=29	=29	=29	=29	=29	=29	=29	=29	=29	=29	=29	=29	=29
4G\	.	.	4A/	.	8d/L	.	8gg\L	.	4F\	paſ-	1ryy	4b-\	paſ-	4gg\	paſ-	1ryy	1ryy	4dd\	.	4gg\	.
.	.	.	.	.	8b-/J	.	8dd\J	.	.	.	.	.	.	.	.	.	.	.	.	.	.
4c\	6	.	4c/	.	(16cc/LL	.	(16ee-\LL	.	4c\	-sus	.	4cc\	-sus	4ee-\	-sus	.	.	4cc\	.	4ee-\	.
.	.	.	.	.	16a/J)	.	16cc\J)	.	.	.	.	.	.	.	.	.	.	.	.	.	.
.	.	.	.	.	8a/J|	.	8cc\J|	.	.	.	.	.	.	.	.	.	.	.	.	.	.
!	!	!	!	!	!	!	!LO:LB:g=original	!	!	!	!	!	!	!	!	!	!	!	!	!	!
4d\	6 4	.	4d/	.	8b-/L	.	8dd\L	.	4d\	et	.	4b-\	et	4dd\	et	.	.	4b-\	.	4dd\	.
.	.	.	.	.	8g/J	.	8b-\J	.	.	.	.	.	.	.	.	.	.	.	.	.	.
4D\	5 #	.	4D/	.	(16a/LL	.	(16cc\LL	.	4D/	Se-	.	4a\	sepul-	4cc\	se-	.	.	4a\	.	4cc\	.
.	.	.	.	.	16f#X/J)	.	16a\J)	.	.	.	.	.	.	.	.	.	.	.	.	.	.
.	.	.	.	.	8f#/J|	.	8a\J|	.	.	.	.	.	.	.	.	.	.	.	.	.	.
!LO:LB:g=original	!	!	!	!	!LO:LB:g=original	!	!	!	!	!	!	!	!	!LO:LB:g=original	!	!	!	!	!	!	!
=30	=30	=30	=30	=30	=30	=30	=30	=30	=30	=30	=30	=30	=30	=30	=30	=30	=30	=30	=30	=30	=30
4G\	5_ 3_	.	4G/	.	8g/L	.	8g/L	.	4G\	-pul-	1ryy	4b-\	-t(us)	4dd\	-pul-	1ryy	1ryy	4g/	.	4b-\	.
.	.	.	.	.	8g/	.	8g/	.	.	.	.	.	.	.	.	.	.	.	.	.	.
4D\	.	.	4d/	.	8d/	.	8d/	.	4G\	-tus	.	4b-\	eſt.	4dd\	-tus	.	.	4g/	.	4b-\	.
.	.	.	.	.	8B-/J	.	8B-/J	.	.	.	.	.	.	.	.	.	.	.	.	.	.
4GG/	.	.	4G/	.	4G/	.	4G/	.	4G\	eſt	.	4b-\	.	4dd\	eſt,	.	.	4g/	.	4b-\	.
4r	x	.	4r	.	4r	.	4r	.	4r	.	.	4r	.	4r	.	.	.	4r	.	4r	.
!	!	!	!	!	!	!	!	!	!	!	!	!	!	!	!	!	!	!LO:LB:g=original	!	!LO:LB:g=original	!
=31	=31	=31	=31	=31	=31	=31	=31	=31	=31	=31	=31	=31	=31	=31	=31	=31	=31	=31	=31	=31	=31
4GG/	.	.	2d\	.	8d/L	.	4bn 4d/	.	00r	.	1ryy	00r	.	00r	.	1ryy	1ryy	1bX	.	1dd	.
.	.	.	.	.	8fn/	.	.	.	.	.	.	.	.	.	.	.	.	.	.	.	.
4BBn/	5 3	.	.	.	8d/	.	(8dd\L|	.	.	.	.	.	.	.	.	.	.	.	.	.	.
.	.	.	.	.	8f/J	.	8dd\J)|	.	.	.	.	.	.	.	.	.	.	.	.	.	.
4BB/	.	.	4d\	.	8Bn/L	.	(8dd\L	.	.	.	.	.	.	.	.	.	.	.	.	.	.
.	.	.	.	.	8d/	.	8ff\)	.	.	.	.	.	.	.	.	.	.	.	.	.	.
4BB/	.	.	4d\	.	8f/	.	(8aa-X\	.	.	.	.	.	.	.	.	.	.	.	.	.	.
.	.	.	.	.	8d/J	.	8bn\J)	.	.	.	.	.	.	.	.	.	.	.	.	.	.
!	!	!	!LO:LB:g=original	!	!	!	!	!	!	!	!	!	!	!	!	!	!	!	!	!	!
=32	=32	=32	=32	=32	=32	=32	=32	=32	=32	=32	=32	=32	=32	=32	=32	=32	=32	=32	=32	=32	=32
4C/	5_ -_	.	4e-\	.	8e-/L	.	(8dd\L	.	.	.	1ryy	.	.	.	.	1ryy	1ryy	1cc	.	8dd\L	.
.	.	.	.	.	8g/	.	8ee-\)	.	.	.	.	.	.	.	.	.	.	.	.	8ee-\J	.
4.c\	.	.	4e-\	.	8e-/	.	8cc\|	.	.	.	.	.	.	.	.	.	.	.	.	2ee-\	.
.	.	.	.	.	8g/J	.	8cc\J|	.	.	.	.	.	.	.	.	.	.	.	.	.	.
.	.	.	8e-\L	.	8e-/L	.	2cc\	.	.	.	.	.	.	.	.	.	.	.	.	.	.
8G\L	.	.	8g\	.	8g/	.	.	.	.	.	.	.	.	.	.	.	.	.	.	.	.
8E-\	.	.	8e-\	.	8e-/	.	.	.	.	.	.	.	.	.	.	.	.	.	.	4ryy	.
8C\J	.	.	8c\J	.	8g/J	.	.	.	.	.	.	.	.	.	.	.	.	.	.	.	.
=33	=33	=33	=33	=33	=33	=33	=33	=33	=33	=33	=33	=33	=33	=33	=33	=33	=33	=33	=33	=33	=33
4FF/	n	.	4c/	.	8c/L	.	(8an\L	.	.	.	1ryy	.	.	.	.	1ryy	1ryy	2a\	.	2cc\	.
.	.	.	.	.	8f/	.	8cc\	.	.	.	.	.	.	.	.	.	.	.	.	.	.
4F\	.	.	4c/	.	8c/	.	8ff\	.	.	.	.	.	.	.	.	.	.	.	.	.	.
.	.	.	.	.	8f/J	.	8a\J)	.	.	.	.	.	.	.	.	.	.	.	.	.	.
4D\	6	.	4B-/	.	8d/L	.	(8b-\L	.	.	.	.	.	.	.	.	.	.	2b-X\	.	2dd\	.
.	.	.	.	.	8f/	.	8dd\	.	.	.	.	.	.	.	.	.	.	.	.	.	.
4BB-\	.	.	4B-/	.	8d/	.	8ff\	.	.	.	.	.	.	.	.	.	.	.	.	.	.
.	.	.	.	.	8f/J	.	8b-\J)	.	.	.	.	.	.	.	.	.	.	.	.	.	.
=34	=34	=34	=34	=34	=34	=34	=34	=34	=34	=34	=34	=34	=34	=34	=34	=34	=34	=34	=34	=34	=34
4F\	n	.	4A/	.	8c/L	.	(8a\L	.	.	.	1ryy	.	.	.	.	1ryy	1ryy	2a\	.	2cc\	.
.	.	.	.	.	8f/	.	8cc\)	.	.	.	.	.	.	.	.	.	.	.	.	.	.
4F\	.	.	4A/	.	8c/	.	(8ff\	.	.	.	.	.	.	.	.	.	.	.	.	.	.
.	.	.	.	.	8f/J	.	8aa\J)	.	.	.	.	.	.	.	.	.	.	.	.	.	.
4A\	6	.	4c/	.	8c/L	.	4.ff\	.	.	.	.	.	.	.	.	.	.	2cc\	.	2ff\	.
.	.	.	.	.	8f/	.	.	.	.	.	.	.	.	.	.	.	.	.	.	.	.
4A\	.	.	4c/	.	8c/	.	.	.	.	.	.	.	.	.	.	.	.	.	.	.	.
.	.	.	.	.	8f/J	.	8cc\	.	.	.	.	.	.	.	.	.	.	.	.	.	.
!	!	!	!	!	!LO:LB:g=original	!	!	!	!	!	!	!	!	!	!	!	!	!	!	!	!
=35	=35	=35	=35	=35	=35	=35	=35	=35	=35	=35	=35	=35	=35	=35	=35	=35	=35	=35	=35	=35	=35
4B-\	6	.	4B-/	.	8b-/L|	.	(8dd\L	.	00r	.	1ryy	00r	.	00r	.	1ryy	1ryy	4b-\	.	4dd\	.
.	.	.	.	.	8g/|	.	8b-\)	.	.	.	.	.	.	.	.	.	.	.	.	.	.
4d\	.	.	4d/	.	8g/|	.	8b-\|	.	.	.	.	.	.	.	.	.	.	4r	.	4r	.
.	.	.	.	.	8g/J|	.	8b-\J|	.	.	.	.	.	.	.	.	.	.	.	.	.	.
4c\	6	.	4c/	.	8a/L|	.	(8cc\L	.	.	.	.	.	.	.	.	.	.	8r	.	8r	.
.	5	.	.	.	8g/|	.	8b-\)	.	.	.	.	.	.	.	.	.	.	8gg\L	.	(8bb-\L	.
4C/	4	.	4C/	.	8f/|	.	(8a\	.	.	.	.	.	.	.	.	.	.	8ff\	.	8aa\	.
.	n	.	.	.	8B-/J	.	8g\J)	.	.	.	.	.	.	.	.	.	.	8eeX\J	.	8gg\J)	.
=36	=36	=36	=36	=36	=36	=36	=36	=36	=36	=36	=36	=36	=36	=36	=36	=36	=36	=36	=36	=36	=36
8r	.	.	8r	.	2B-/	.	(2g/	.	.	.	1ryy	.	.	.	.	1ryy	1ryy	2eeX\	.	2gg\	.
8C\L	7_ n_	.	8c\L|	.	.	.	.	.	.	.	.	.	.	.	.	.	.	.	.	.	.
8En\	.	.	8en\|	.	.	.	.	.	.	.	.	.	.	.	.	.	.	.	.	.	.
8G\J	.	.	8g\J|	.	.	.	.	.	.	.	.	.	.	.	.	.	.	.	.	.	.
8F\L	3	.	8f\L|	.	4A/	.	4f/)	.	.	.	.	.	.	.	.	.	.	4ff\	.	4ff\	.
8E-X|\	.	.	8e-X\|	.	.	.	.	.	.	.	.	.	.	.	.	.	.	.	.	.	.
8D|\	.	.	8d\|	.	4r	.	4r	.	.	.	.	.	.	.	.	.	.	4r	.	4r	.
8C|\J	.	.	8c\J|	.	.	.	.	.	.	.	.	.	.	.	.	.	.	.	.	.	.
!	!	!	!	!	!	!	!LO:LB:g=original	!	!	!	!	!	!	!	!	!	!	!	!	!	!
=37	=37	=37	=37	=37	=37	=37	=37	=37	=37	=37	=37	=37	=37	=37	=37	=37	=37	=37	=37	=37	=37
!	!	!	!	!	!LO:TX:a:i:t=dol	!LO:DY:rj	!LO:TX:a:i:t=dol&colon;	!LO:DY:t=p.:rj	!	!	!	!	!	!	!	!	!	!LO:TX:b:i:t=dol	!	!LO:TX:a:i:t=dol	!
2BB-/	.	.	4B-/	.	2d/	p	(2f/	p	.	.	1ryy	.	.	.	.	1ryy	1ryy	(2dd\	.	2ff\	.
.	.	.	4b-\	p	.	.	.	.	.	.	.	.	.	.	.	.	.	.	.	.	.
!	!	!	!	!	!	!	!	!	!	!	!	!	!	!	!	!	!	!	!	!	!LO:DY:t=p&colon;
2r	.	.	2r	.	4B-/	.	4d/)	.	.	.	.	.	.	.	.	.	.	4b-\)	.	4dd\	p
.	.	.	.	.	4c/	.	4e-|/	.	.	.	.	.	.	.	.	.	.	4cc\	.	4ee-\	.
!	!	!	!LO:LB:g=original	!	!	!	!	!	!	!	!	!	!	!	!	!	!	!	!	!	!
=38	=38	=38	=38	=38	=38	=38	=38	=38	=38	=38	=38	=38	=38	=38	=38	=38	=38	=38	=38	=38	=38
!LO:TX:b:i:t=pedale	!	!	!	!	!	!	!	!	!	!	!	!	!	!	!	!	!	!	!	!	!
2B-\	.	.	2f\	.	4.d/	.	4.f/	.	.	.	1ryy	.	.	.	.	1ryy	1ryy	4.dd\	.	(4.ff\	.
.	.	.	.	.	8c/	.	8e-/	.	.	.	.	.	.	.	.	.	.	8cc\	.	8ee-\	.
4BB-/	.	.	4b-\	.	4B-/	.	4d/	.	.	.	.	.	.	.	.	.	.	4b-\	.	4dd\)	.
4r	.	.	4B-/	.	8r	.	8r	.	.	.	.	.	.	.	.	.	.	8r	.	8r	.
.	.	.	.	.	8B-/	.	8d/	.	.	.	.	.	.	.	.	.	.	8b-\	.	8dd\	.
!	!	!	!	!	!	!	!	!	!	!	!	!	!	!	!	!	!	!LO:LB:g=original	!	!LO:LB:g=original	!
=39	=39	=39	=39	=39	=39	=39	=39	=39	=39	=39	=39	=39	=39	=39	=39	=39	=39	=39	=39	=39	=39
4BB-/	.	.	4b-\	.	4B-/	.	(8d/L	.	0r	.	1ryy	0r	.	0r	.	1ryy	1ryy	4b-\	.	4dd\	.
.	.	.	.	.	.	.	8B-/)	.	.	.	.	.	.	.	.	.	.	.	.	.	.
4E-\	.	.	4r	.	(8e-/L	.	(8g/	.	.	.	.	.	.	.	.	.	.	(8ee-\L	.	8gg\L	.
.	.	.	.	.	8d/J)	.	8f/J)	.	.	.	.	.	.	.	.	.	.	8dd\J)	.	8ff\J	.
!LO:LB:g=original	!	!	!	!	!	!	!	!	!	!	!	!	!	!	!	!	!	!	!	!	!
4F\	.	.	4f\	.	(8d/L	.	(8f/L	.	.	.	.	.	.	.	.	.	.	8dd\L	.	(8ff\L	.
.	.	.	.	.	8c/)	.	8e-/)	.	.	.	.	.	.	.	.	.	.	8cc\	.	8ee-\	.
4FF/	.	.	4f\	.	(8B-/	.	(8d/	.	.	.	.	.	.	.	.	.	.	8b-\	.	8dd\	.
.	.	.	.	.	8A/J)	.	8c/J)	.	.	.	.	.	.	.	.	.	.	8a\J	.	8cc\J)	.
=40	=40	=40	=40	=40	=40	=40	=40	=40	=40	=40	=40	=40	=40	=40	=40	=40	=40	=40	=40	=40	=40
4BB-/	.	.	4d\	.	4B-/	.	4d/	.	.	.	1ryy	.	.	.	.	1ryy	1ryy	4f/	.	4b-\	pp
4r	.	.	4r	.	4r	.	4r	.	.	.	.	.	.	.	.	.	.	4r	.	4r	.
4BB-/	.	.	4F/	.	4d/	.	4f/	.	.	.	.	.	.	.	.	.	.	4dd\	.	4ff\	.
4r	.	.	4r	.	4r	.	4r	.	.	.	.	.	.	.	.	.	.	4r	.	4r	.
=41	=41	=41	=41	=41	=41	=41	=41	=41	=41	=41	=41	=41	=41	=41	=41	=41	=41	=41	=41	=41	=41
!LO:TX:b:i:t=V. S.	!	!	!	!	!	!	!	!	!	!	!	!LO:TX:t=P:problem=brak pauzy 1r	!	!LO:TX:b:i:t=Et resurexit Verte	!	!	!	!	!	!	!
1BB-	.	.	1F	.	1B-	.	2d/	.	1r	.	1ryy	1ryy	.	1r	.	1ryy	1ryy	1b-	.	1dd	.
.	.	.	.	.	.	.	2r	.	.	.	.	.	.	.	.	.	.	.	.	.	.
==	==	==	==	==	==	==	==	==	==	==	==	==	==	==	==	==	==	==	==	==	==
*-	*-	*-	*-	*-	*-	*-	*-	*-	*-	*-	*-	*-	*-	*-	*-	*-	*-	*-	*-	*-	*-
!!!system-decoration: [(g1)][(g2)][(g3)][(g4)]<s12>
!!!RDF**kern: > = above
!!!RDF**kern: < = below
!!!RDF**kern: | = vertical stroke
!!!ENC: Berenika Jozajtis
!!!END: 2020-07-22
!!!ENC: Andrzej Kubiczek
!!!END: 2022-02-04
